!!!!SEGMENT: pl-wtm--r-730-2-m_moniuszko-stanislaw--mazurek.krn
!!!cenid: 18xx:1679
!!!COM: Moniuszko, Stanisław
!!!COM-rismid: pe30008351
!!!CDT: 1819/05/05-1872/06/04
!!!CNT: Polish
!!!OTL: Mazurek
!!!PDT:
!!!AGN: Secular; Mazurka
!!!SMS-siglum: PL-Wtm
!!!SMS-shelfmark: R 730/2/M
!!!SMS-shelfwork: W
!!!SMS-variant:
!!!SMS-altvar:
!!!NIFC-rismid: 1001099720
!!!URL-scan: http://repozytorium.nifc.pl/skany/pl-wtm-nut--r730m-1-43
!!!ONB-nifc: Skan 0010. No. 751
!!!key:
**kern	**kern	**dynam
*part1	*part1	*part1
*staff2	*staff1	*
*Iforte	*Iforte	*
*I"Fortepian	*I"Fortepian	*
*I'pf	*I'pf	*
*clefF4	*clefG2	*
*k[f#]	*k[f#]	*
*G:	*G:	*
*M3/8	*M3/8	*
=1	=1	=1
8cL 8D\	4.r	.
8c 8D\	.	.
8cJ 8D\	.	.
=2	=2	=2
16cLL 16D\	4.r	.
16cJ 16D\	.	.
8c 8D\	.	.
8cJ 8D\	.	.
=3||	=3||	=3||
8cL 8D\	16d/LL	.
.	16f#X/J	.
8c 8D\	8a/	.
8cJ 8D\	16a/L	.
.	16bn/JJ	.
=4	=4	=4
8cL 8D\	16a/LL	.
.	16d/J	.
8B 8D\	8g/	.
8GJ 8D\	8b/J	.
=5	=5	=5
8cL 8D\	16d/LL	.
.	16f#X/J	.
8c 8D\	8a/	.
8cJ 8D\	16a/L	.
.	16b/JJ	.
=6	=6	=6
8cL 8D\	16a/LL	.
.	16d/J	.
8B 8D\	8g/	.
8GJ 8D\	8b/J	.
=7	=7	=7
8AL 8D\	16a/LL	.
.	16a/J	.
8B 8D\	8g#Xt/	.
8c#XJ 8D\	16gn/L	.
.	16e/JJ	.
=8	=8	=8
8dL 8D\	16a/LL	.
.	16A/J	.
8D 8DD\	8dd 8d^^</	.
8DJ 8DD\	8ddJ 8d^^</	.
=9	=9	=9
8AL 8D\	16a/LL	.
.	16a/J	.
8B 8D\	8g#X/	.
8cJ 8D\	16gn/L	.
.	16e/JJ	.
=10	=10	=10
8dL 8D\	16f#/LL	.
.	16A/J	.
8D 8DD\	8d/	.
8DJ 8DD\	8d/J	.
!!LO:LB:g=original
=11	=11	=11
8cL 8D\	16d/LL	.
.	16f#X/J	.
8c 8D\	8a/	.
8cJ 8D\	16a/L	.
.	16bn/JJ	.
=12	=12	=12
8cL 8D\	16a/LL	.
.	16d/J	.
8B 8D\	8g/	.
8GJ 8D\	8b/J	.
=13	=13	=13
8cL 8D\	16d/LL	.
.	16f#X/J	.
8c 8D\	8a/	.
8cJ 8D\	16a/L	.
.	16bn/JJ	.
=14	=14	=14
8cL 8D\	16a/LL	.
.	16d/J	.
8B 8D\	8g/	.
8GJ 8D\	8b/J	.
=15	=15	=15
8AL 8D\	16a/LL	.
.	16a/J	.
8B 8D\	8g#Xt/	.
8c#XJ 8D\	16gn/L	.
.	16e/JJ	.
=16	=16	=16
8dL 8D\	16f#/LL	.
.	16A/J	.
8D 8DD\	8dd 8d/	.
8DJ 8DD\	8ddJ 8d/	.
=17	=17	=17
8AL 8D\	16a/LL	.
.	16a/J	.
8B 8D\	8g#X/	.
8cJ 8D\	16gn/L	.
.	16e/JJ	.
=18	=18	=18
8dL 8D\	16f#/LL	.
.	16A/J	.
8D 8DD\	8d/	.
8DJ 8DD\	8d/J	.
=19||	=19	=19
!LO:TX:a:t=P:problem=mixed beam	!	!
8FFn/L	16fn\LL	.
.	16cc\J	.
!LO:SIC:v:s=Fn	!	!
8e-X\ 8F#\	8cc\	.
!LO:SIC:v:s=Fn	!	!
8e-\J 8F#\	16b-X\L	.
.	16a/JJ	.
=20	=20	=20
8dL 8B-X\	16b-X\LL	.
.	16cc\J	.
8d 8D\	8ff#X 8dd 8a\	.
8GJ 8GG\	8ggJ 8b- 8g\	.
=21	=21	=21
!LO:TX:a:t=P:problem=mixed beam	!	!
8FFn/L	16fn\LL	.
.	16cc\J	.
!LO:SIC:v:s=Fn	!	!
8e-X\ 8F#\	8ccT\	.
!LO:SIC:v:s=Fn	!	!
8e-\J 8F#\	16b\L	.
.	16a\JJ	.
!!LO:LB:g=original
=22	=22	=22
8dL 8B\	16b/LL	.
.	16dd/J	.
8D\	8f#X 8c/	.
8E\J	8gJ 8B/	.
=23	=23	=23
!LO:TX:a:t=P:problem=mixed beam	!	!
8FFn/L	16fn\LL	.
.	16cc\J	.
!LO:SIC:v:s=Fn	!	!
8e-X\ 8F#\	8cc\	.
!LO:SIC:v:s=Fn	!	!
8e-\J 8F#\	16b-X\L	.
.	16a\JJ	.
=24	=24	=24
8dL 8B-X\	16b-X\LL	.
.	16dd\J	.
8B- 8E-X\	8cc#X\ 8g\	.
8AJ 8D\	8ccn\J 8f#X\	.
=25	=25	=25
*	*^	*
8A-XL 8D-X\	8bn/L	16a-XLL 16fn\	.
.	.	16g\J	.
8A- 8D-\	8b/	8fT\	.
8GJ 8C\	8cc/J	8e\J	.
=26	=26	=26	=26
8G-XL 8C-X\	8an/L	16g-XLL 16e-X\	.
.	.	16f#\J	.
8G- 8C-\	8a/	8e-t\	.
8FnJ 8BB-X\	8b/J	8d\J	.
*	*v	*v	*
=27	=27	=27
8F-XL 8BB--\	16gLL 16d-X/	.
!	!LO:N:acc=-	!
.	16fn/J	.
8F- 8BB--\	8g 8e-X/	.
8EJ 8BB--\	8gJ 8d-/	.
=28	=28	=28
8E-XL 8AA-X\	8a-XL 8c/	.
8E- 8AA-\	8a- 8c/	.
8E-J 8AA-\	8a-J 8c/	.
=29	=29	=29
*rep	*	*
8E-XL 8AA-X\	16c/LL	.
.	16e-X/J	.
8E- 8AA-\	8a-X 8c/	.
8E-J 8AA-\	16a-L 16c/	.
.	16cc/JJ	.
*Xrep	*	*
=30	=30	=30
*rep	*	*
8E-XL 8AA-X\	16b-XLL 16d-X/	.
.	16e-X/J	.
8E- 8AA-\	8a-X 8c/	.
8E-J 8AA-\	8ccJ 8c/	.
*Xrep	*	*
=31	=31	=31
*rep	*	*
8E-XL 8AA-X\	16c/LL	.
.	16e-X/J	.
8E- 8AA-\	8a-X 8c/	.
8E-J 8AA-\	16a-L 16c/	.
.	16cc/JJ	.
*Xrep	*	*
!!LO:LB:g=original
=32	=32	=32
8E-XL 8AA-X\	16b-XLL 16d-X/	.
.	16e-X/J	.
8E- 8AA-\	8a-X 8c/	.
8E-J 8AA-\	8a-J 8c/	.
=33	=33	=33
8EnL 8AAn\	16c#X/LL	.
.	16en/J	.
8E 8AA\	8an 8c#/	.
8EJ 8AA\	16aL 16c#/	.
!	!LO:SIC:v:s=cc#	!
.	16cc/JJ	.
=34	=34	=34
*rep	*	*
8EL 8AA\	16bnLL 16d/	.
.	16e/J	.
8E 8AA\	8a 8c#X/	.
!	!LO:SIC:v:s=cc#	!
8EJ 8AA\	8ccJ 8c#/	.
*Xrep	*	*
=35	=35	=35
*rep	*	*
8EL 8AA\	16c#X/LL	.
.	16en/J	.
8E 8AA\	8an 8c#/	.
8EJ 8AA\	16aL 16c#/	.
.	16cc/JJ	.
!	!LO:SIC:v:s=cc#	!
*Xrep	*	*
=36	=36	=36
*rep	*	*
8EL 8AA\	16bnLL 16d/	.
.	16e/J	.
8E 8AA\	8a 8c#X/	.
!	!LO:SIC:v:s=cc#	!
8EJ 8AA\	8ccJ 8c#/	.
*Xrep	*	*
=37	=37	=37
8DL 8DD\	16d/LL	.
.	16f#X/J	.
8c 8D\	8a/	.
8cJ 8D\	16a/L	.
.	16bn/JJ	.
=38	=38	=38
8cL 8D\	16a/LL	.
.	16d/J	.
8B 8D\	8g/	.
8GJ 8D\	8b/J	.
=39	=39	=39
8DL 8DD\	16d/LL	.
.	16f#X/J	.
8c 8D\	8a/	.
8cJ 8D\	16a/L	.
.	16bn/JJ	.
=40	=40	=40
8cL 8D\	16a/LL	.
.	16d/J	.
8B 8D\	8g/	.
8GJ 8D\	8b/J	.
!!LO:LB:g=original
=41	=41	=41
8AL 8D\	16a/LL	.
.	16a/J	.
8B 8D\	8g#Xt/	.
8c#XJ 8D\	16gn/L	.
.	16e/JJ	.
=42	=42	=42
8dL 8D\	16f#/LL	.
.	16A/J	.
8D 8DD\	8dd 8d^^</	.
8DJ 8DD\	8ddJ 8d^^</	.
=43	=43	=43
8AL 8D\	16a/LL	.
.	16a/J	.
8B 8D\	8g#X/	.
8cJ 8D\	16gn/L	.
.	16e/JJ	.
=44	=44	=44
8dL 8D\	16f#/LL	.
.	16A/J	.
8D 8DD\	8d/	.
8DJ 8DD\	8d/J	.
=45	=45	=45
8BB\L 8BBB\	16B/LL	.
.	16f#/J	.
!	!LO:TUP:b:problem=klamra łukowa	!
8A\ 8BB\	24f#/L	.
.	24g#X/	.
.	24f#/J	.
8A\J 8BB\	16e/L	.
.	16d#X/JJ	.
=46	=46	=46
8E\L 8EE\	16e/LL	.
.	16f#/J	.
8G#X\ 8E\	8g#X/	.
8G#\J 8E\	8g#/J	.
=47	=47	=47
8DL 8DD\	16d/LL	.
.	16a/J	.
!	!LO:TUP:b:problem=klamra łukowa	!
8c 8D\	24a/L	.
.	24b/	.
.	24a/J	.
8cJ 8D\	16g/L	.
.	16f#/JJ	.
=48	=48	=48
8GL 8GG\	16g/LL	.
.	16a/J	.
8B 8G\	8b/	.
8BJ 8G\	8b/J	.
=49	=49	=49
8B 8BB\	16b\LL	.
.	16ff#\J	.
*clefG2	*	*
!	!LO:TUP:a:problem=klamra łukowa	!
8aL 8B/	24ff#\L	.
.	24gg#X\	.
.	24ff#\J	.
8aJ 8B/	16ee\L	.
.	16dd#X\JJ	.
!!LO:PB:g=original
=50	=50	=50
8g 8e/	16ee\LL	.
.	16ff#\J	.
4b-X 4g 4c#X/	8ggn\	.
.	16ff#\L	.
.	16ee\JJ	.
=51	=51	=51
8b 8g 8d/	16dd\LL	.
.	16ee\J	.
*clefF4	*	*
8eL 8F# 8D\	8cc\	.
16d\L	16b\L	.
16c\JJ	16a\JJ	.
=52	=52	=52
8B 8G\	16g/LL	.
.	16a/J	.
4E 4GG/	8b-X 8c#X/	.
.	16g/L	.
.	16e/JJ	.
=53	=53	=53
8DL 8DD\	16d/LL	.
.	16a/J	.
!	!LO:TUP:b:problem=klamra łukowa	!
8c 8D\	24a/L	.
.	24b/	.
.	24a/J	.
8cJ 8D\	16g/L	.
.	16f#/JJ	.
=54	=54	=54
!LO:TX:a:t=P:problem=mixed beam	!	!
8GG/L	16g/LL	.
.	16a/J	.
8B\ 8G\	8b/	.
8B\J 8G\	8b/J	.
=55	=55	=55
!LO:TX:a:t=P:problem=mixed beam	!	!
8BB/L	16b\LL	.
.	16ff#\J	.
!	!LO:TUP:b:problem=klamra łukowa	!
8d#X\ 8A\ 8F#\	24ff#\L	.
.	24gg\	.
.	24ff#\J	.
8d#\J 8A\ 8F#\	16ee\L	.
.	16dd#X\JJ	.
=56	=56	=56
8E\L	16ee\LL	.
.	16ff#\J	.
8e 8G\	8gg\	.
8eJ 8G\	8gg\J	.
!!LO:LB:g=original
=57	=57	=57
8D\L	16dd\LL	.
.	16aa\J	.
8f# 8c 8A\	8aa\	.
8f#J 8c 8A\	16gg\L	.
.	16ff#\JJ	.
=58	=58	=58
8G\L	16gg\LL	.
.	16aa\J	.
8g 8d 8B\	8bb\	.
8gJ 8d 8B\	16gg\L	.
.	16ee\JJ	.
=59	=59	=59
8dL 8D\	16dd\LL	.
.	16ee\J	.
8f# 8c 8A\	8cc\	.
8f#J 8c 8A\	16b\L	.
.	16a\JJ	.
=60	=60	=60
8g 8B 8G\	8g/L	.
!	!	!LO:DY:b:rj:t=p.
8DL 8GG/	8g 8B/	p
8DJ 8GG/	8gJ 8B/	.
=61	=61	=61
16DLL 16GG/	16gLL 16B/	.
16DJ 16GG/	16gJ 16B/	.
8D 8GG/	8g 8B/	.
8DJ 8GG/	8gJ 8B/	.
=62	=62	=62
4D 4GG/	4g 4B/	.
8r	8r	.
=63	=63	=63
!	!	!LO:DY:b:rj:t=sf.
8G 8GG\	8gg 8cc#X 8a#X\	sf
8r	8r	.
8r	8r	.
=64	=64	=64
!	!	!LO:DY:b:t=sf.
8G 8GG\	8gg 8dd 8b\	sf
8r	8r	.
8r	8r	.
==;>	==;>	==
*-	*-	*-
!!!system-decoration: [s1,s2]
!!!RDF**kern: > = above
!!!RDF**kern: < = below
!!!EED: Antoni Szymański
!!!EST: 2021-04-19
!!!AIN: 1 forte
!!!ENC: Marcin Jachim
!!!END: 2021-03-30
